X: 1
T: Jack The Lad
R: reel
M: 4/4
L: 1/8
K: Edor
E3 F G2 A2|B2 e2 B4|{c} d2 d2 d2 B2|A2 F2 E2 D2|
E3 F G2 A2|B2 e2 B4|{c} d2 B2 A2 F2|E4 E4:|
e2 e2 e2 e2|d2 B2 B3 c|d2 d2 d2 B2|A2 F2 E2 D2|
E3 F G2 A2|B2 e2 B4|{c} d2 B2 A2 F2|E4 E4:|

